static/assets/images/logos/monochrome/xbav.svg

<svg width="89" height="48" viewBox="0 0 89 48" fill="none" xmlns="http://www.w3.org/2000/svg">
<path d="M82.6869 0H88.014L76.028 35.847H70.208L62.61 12.37H67.9049L73.133 28.877H73.1989L82.6869 0ZM53.382 12.369H58.6759L67.456 35.847H62.096L60.32 30.62H51.54L49.7 35.847H44.505L53.382 12.369ZM32.4939 12.369V20.919H32.56C33.1156 20.0536 33.9252 19.3813 34.8779 18.994C35.8412 18.5913 36.875 18.3846 37.9189 18.386C38.7749 18.386 39.619 18.562 40.452 18.913C41.285 19.263 42.0349 19.8 42.7039 20.523C43.3729 21.247 43.915 22.173 44.332 23.303C44.748 24.432 44.957 25.774 44.957 27.331C44.957 28.887 44.748 30.231 44.332 31.359C43.915 32.489 43.3719 33.414 42.7039 34.137C42.0996 34.8074 41.3617 35.344 40.5376 35.7122C39.7135 36.0804 38.8215 36.2721 37.9189 36.275C36.6699 36.275 35.5519 36.078 34.5649 35.683C33.6006 35.3083 32.8057 34.5952 32.3289 33.677H32.263V35.847H27.825V12.37L32.4939 12.369ZM55.9469 18.156L52.889 26.772H58.972L56.012 18.156H55.9469ZM36.3079 32.79C37.0089 32.79 37.6079 32.642 38.0999 32.346C38.5979 32.046 39.02 31.636 39.334 31.146C39.663 30.642 39.9039 30.061 40.0569 29.403C40.2113 28.7344 40.2884 28.0502 40.2869 27.364C40.2896 26.6675 40.2124 25.973 40.0569 25.294C39.9199 24.6748 39.6752 24.0845 39.334 23.55C39.02 23.06 38.5979 22.65 38.0999 22.35C37.6069 22.054 37.0099 21.906 36.3079 21.906C35.6279 21.906 35.037 22.054 34.533 22.35C34.0281 22.6466 33.5999 23.0577 33.283 23.55C32.9415 24.0841 32.6968 24.6741 32.56 25.293C32.4039 25.9722 32.3268 26.6671 32.33 27.364C32.33 28.067 32.406 28.745 32.56 29.404C32.713 30.061 32.954 30.642 33.283 31.146C33.613 31.651 34.028 32.05 34.533 32.346C35.037 32.642 35.6279 32.79 36.3079 32.79Z" fill="black"/>
<path d="M20.183 17.3281L16.966 22.1531L13.714 17.3281H7.924L14 26.0841L0 48.0001H5.683L16.895 29.9801L20.755 35.8061H26.545L19.718 25.9771L25.795 17.3271L20.183 17.3281Z" fill="black"/>
</svg>

<svg clip-rule="evenodd" fill-rule="evenodd" stroke-linejoin="round" stroke-miterlimit="2" viewBox="0 0 1000 546" xmlns="http://www.w3.org/2000/svg"><g fill-rule="nonzero" transform="scale(11.3618)"><path d="m82.687 0h5.327l-11.986 35.847h-5.82l-7.598-23.477h5.295l5.228 16.507h.066zm-29.305 12.369h5.294l8.78 23.478h-5.36l-1.776-5.227h-8.78l-1.84 5.227h-5.195zm-20.888 0v8.55h.066c.556-.865 1.365-1.538 2.318-1.925.963-.403 1.997-.609 3.041-.608.856 0 1.7.176 2.533.527.833.35 1.583.887 2.252 1.61.669.724 1.211 1.65 1.628 2.78.416 1.129.625 2.471.625 4.028 0 1.556-.209 2.9-.625 4.028-.417 1.13-.96 2.055-1.628 2.778-.604.67-1.342 1.207-2.166 1.575s-1.716.56-2.619.563c-1.249 0-2.367-.197-3.354-.592-.964-.375-1.759-1.088-2.236-2.006h-.066v2.17h-4.438v-23.477zm23.453 5.787-3.058 8.616h6.083l-2.96-8.616zm-19.639 14.634c.701 0 1.3-.148 1.792-.444.498-.3.92-.71 1.234-1.2.329-.504.57-1.085.723-1.743.154-.669.231-1.353.23-2.039.003-.696-.075-1.391-.23-2.07-.137-.619-.382-1.21-.723-1.744-.314-.49-.736-.9-1.234-1.2-.493-.296-1.09-.444-1.792-.444-.68 0-1.271.148-1.775.444-.505.297-.933.708-1.25 1.2-.341.534-.586 1.124-.723 1.743-.156.679-.233 1.374-.23 2.071 0 .703.076 1.381.23 2.04.153.657.394 1.238.723 1.742.33.505.745.904 1.25 1.2.504.296 1.095.444 1.775.444z"/><path d="m20.183 17.328-3.217 4.825-3.252-4.825h-5.79l6.076 8.756-14 21.916h5.683l11.212-18.02 3.86 5.826h5.79l-6.827-9.829 6.077-8.65z"/></g></svg>
